X:164
T: AUS IHREM SCHLAF ERWACHET
N: B0196
O: Europa, Mitteleuropa, Deutschland
R: Jahreszeiten - Lied, Fruehling
M: 6/8
L: 1/16
K: A
E2 | C4E2A4B2 | c4B2A4
A2 | d4c2B4A2 | G8z2
d2 | c4B2A4G2 | F4^A2B4
c2 | d3cB2A2B2G2 | A8z2
E2 | G4E2A4E2 | B6c4
c2 | d4d2c2B2c2 | B8z2
B2 | c4B2A4G2 | F4^A2B4
c2 | d3cB2A2B2G2 | c6cedc
BA | B4B2G4G2 | A8z2

@@@ Tune index: 1967
